X: 15881
T: Graf Spee, The
R: reel
M: 4/4
K: Cmajor
~E3D EG ~G2|AGcG AG~G2|EGC/D EG ~G2|AGcG EDD2|
EGC/D EG ~G2|AG ~G2 cG ~G2|EDC/D EG ~G2|cAGE ED D2||
e2 de cAGE|GE~E2 GAcd|~e3c dAcA|cAGE EDD2|
ecde cAGE|GE ~E2 GAcd|~a3 g ~e3 d|GEcE EDD2||
egg^f ~g3d|eaag ~a3g|eged cBcd|edag ed d2|
egg^f ~g3d|eaag ~a3g|e2 ed c3 d|egag ed d2||
ecde cAGE|GAcd cAGE|GAcd ecde|AGcG EDD2|
~e3 d cAGE|~G3 d cA ~A2|GAcd ecdc|AGcG EDD2|
egcd egcg|fada fa d2|egcd edcA|GAcd ed d_e|
e2 ae gefd|e2 de cAGE|~G3 d ecdc|AGcG EDD2||

